src/lib/packages/icons/src/assets/line/dollar-circle.svg

<svg width="24" height="24" viewBox="0 0 24 24" fill="none" xmlns="http://www.w3.org/2000/svg">
<path d="M12 1.25C6.072 1.25 1.25 6.072 1.25 12C1.25 17.928 6.072 22.75 12 22.75C17.928 22.75 22.75 17.928 22.75 12C22.75 6.072 17.928 1.25 12 1.25ZM12 21.25C6.899 21.25 2.75 17.101 2.75 12C2.75 6.899 6.899 2.75 12 2.75C17.101 2.75 21.25 6.899 21.25 12C21.25 17.101 17.101 21.25 12 21.25ZM12.986 11.472L11.378 11.073C11.13 11.011 10.919 10.8719 10.76 10.6689C10.61 10.4789 10.527 10.235 10.527 9.98401C10.527 9.36501 11.03 8.86206 11.649 8.86206H12.349C12.921 8.86206 13.4 9.29206 13.465 9.86206C13.511 10.2741 13.878 10.572 14.294 10.524C14.706 10.478 15.002 10.1069 14.956 9.69495C14.821 8.49295 13.891 7.56597 12.727 7.39697V7C12.727 6.586 12.391 6.25 11.977 6.25C11.563 6.25 11.227 6.586 11.227 7V7.40405C9.98199 7.60805 9.02701 8.68203 9.02701 9.98303C9.02701 10.57 9.22401 11.144 9.57901 11.592C9.93501 12.051 10.443 12.383 11.013 12.527L12.621 12.926C13.122 13.053 13.472 13.501 13.472 14.015C13.472 14.313 13.355 14.594 13.142 14.807C12.929 15.02 12.648 15.137 12.35 15.137H11.65C11.078 15.137 10.599 14.707 10.534 14.137C10.488 13.725 10.112 13.425 9.70499 13.475C9.29299 13.521 8.997 13.892 9.043 14.304C9.176 15.491 10.084 16.412 11.227 16.597V17C11.227 17.414 11.563 17.75 11.977 17.75C12.391 17.75 12.727 17.414 12.727 17V16.6021C13.282 16.5211 13.797 16.275 14.202 15.87C14.698 15.374 14.972 14.716 14.972 14.017C14.972 12.814 14.157 11.769 12.986 11.472Z" fill="currentColor"/>
</svg>

<svg xmlns="http://www.w3.org/2000/svg" width="24" height="24" fill="none"><path fill="currentColor" d="M12 1.25C6.072 1.25 1.25 6.072 1.25 12S6.072 22.75 12 22.75 22.75 17.928 22.75 12 17.928 1.25 12 1.25Zm0 20c-5.101 0-9.25-4.149-9.25-9.25S6.899 2.75 12 2.75s9.25 4.149 9.25 9.25-4.149 9.25-9.25 9.25Zm.986-9.778-1.608-.399a1.121 1.121 0 0 1 .271-2.21h.7c.572 0 1.051.43 1.116 1a.75.75 0 0 0 1.491-.167 2.617 2.617 0 0 0-2.229-2.299V7a.75.75 0 0 0-1.5 0v.404a2.62 2.62 0 0 0-2.2 2.579c0 .587.197 1.161.552 1.609.356.459.864.791 1.434.935l1.608.399c.501.127.851.575.851 1.089 0 .298-.117.579-.33.792-.213.213-.494.33-.792.33h-.7c-.572 0-1.051-.43-1.116-1a.75.75 0 1 0-1.491.167 2.617 2.617 0 0 0 2.184 2.293V17a.75.75 0 0 0 1.5 0v-.398a2.605 2.605 0 0 0 2.245-2.585 2.624 2.624 0 0 0-1.986-2.545Z"/></svg>
